icons/svg/24x24/check squircle/outline.svg

<svg xmlns="http://www.w3.org/2000/svg" width="24" height="24" viewBox="0 0 24 24">
  <path fill-rule="evenodd" d="M11.0449,15.999 C11.3259,15.986 11.5879,15.856 11.7689,15.641 L16.7689,9.641 C17.1219,9.216 17.0649,8.585 16.6409,8.231 C16.2139,7.878 15.5849,7.936 15.2319,8.359 L10.9329,13.519 L8.7069,11.293 C8.3159,10.902 7.6839,10.902 7.2929,11.293 C6.9019,11.684 6.9019,12.316 7.2929,12.707 L10.2929,15.707 C10.4809,15.895 10.7349,16 10.9999,16 C11.0149,16 11.0299,16 11.0449,15.999 M11.9999,2 C10.1999,2 8.4449,2.192 6.7549,2.558 C4.6509,3.012 3.0129,4.651 2.5579,6.754 C2.1919,8.444 1.9999,10.199 1.9999,12 C1.9999,13.8 2.1919,15.555 2.5579,17.245 C3.0129,19.348 4.6509,20.987 6.7539,21.441 C8.4449,21.808 10.1999,22 11.9999,22 C13.7999,22 15.5549,21.808 17.2459,21.441 C19.3479,20.987 20.9869,19.348 21.4419,17.245 C21.8079,15.555 21.9999,13.8 21.9999,12 C21.9999,10.2 21.8079,8.445 21.4419,6.755 C20.9869,4.652 19.3479,3.013 17.2459,2.559 C15.5549,2.192 13.7999,2 11.9999,2 M11.9999,4 C13.6269,4 15.2489,4.173 16.8229,4.513 C18.1529,4.801 19.1989,5.847 19.4869,7.177 C19.8269,8.751 19.9999,10.374 19.9999,12 C19.9999,13.626 19.8269,15.249 19.4869,16.823 C19.1989,18.153 18.1529,19.199 16.8229,19.487 C15.2489,19.827 13.6259,20 11.9999,20 C10.3739,20 8.7509,19.827 7.1769,19.487 C5.8459,19.199 4.8009,18.153 4.5129,16.823 C4.1729,15.249 3.9999,13.626 3.9999,12 C3.9999,10.373 4.1729,8.75 4.5129,7.177 C4.8009,5.846 5.8469,4.8 7.1769,4.513 C8.7509,4.173 10.3739,4 11.9999,4"/>
</svg>

<svg width="24" height="24" fill="none" xmlns="http://www.w3.org/2000/svg">
  <path fill-rule="evenodd" clip-rule="evenodd" d="M11.769 15.641l6-6a1.003 1.003 0 00-.128-1.41 1.002 1.002 0 00-1.41.128c-.352.423-5.298 5.16-5.298 5.16l-2.226-2.226a.999.999 0 10-1.414 1.414l3 3A1 1 0 0011 16l.045-.001c.28-.013.543-.143.724-.358zM11.999 2c-1.8 0-3.554.192-5.244.558a5.472 5.472 0 00-4.197 4.196A24.762 24.762 0 002 12c0 1.8.192 3.555.558 5.245a5.472 5.472 0 004.196 4.196C8.444 21.808 10.2 22 12 22c1.8 0 3.555-.192 5.246-.559a5.473 5.473 0 004.196-4.196A24.76 24.76 0 0022 12c0-1.8-.192-3.555-.558-5.245a5.473 5.473 0 00-4.196-4.196A24.711 24.711 0 0012 2zm4.824 2.513a3.487 3.487 0 012.664 2.664 22.886 22.886 0 010 9.646 3.487 3.487 0 01-2.664 2.664 22.886 22.886 0 01-9.646 0 3.486 3.486 0 01-2.664-2.664 22.886 22.886 0 010-9.646 3.484 3.484 0 012.664-2.664 22.886 22.886 0 019.646 0z" fill="#000"/>
</svg>
